X: 781
T: Zhi shuojin
L: 1/16
M: 2/4
K: F
c2 d f c2 A2 [I:setbarnb 1]| 
d2 f2 d2 c2 | 
A2 c2 A G F2 | 
G2> A2G4 | 
c2 c A c2 d2 | 
D F C D2< F2 G | 
A c A G F G D2 | 
C8 |]

@@@ Tune index: 9655
